dist/img/corp/common-icon7.svg

<svg width="51" height="50" viewBox="0 0 51 50" fill="none" xmlns="http://www.w3.org/2000/svg">
<path d="M45.7946 21.7501L43.753 30.4584C42.003 37.9792 38.5446 41.0209 32.0446 40.3959C31.003 40.3126 29.878 40.1251 28.6696 39.8334L25.1696 39.0001C16.4821 36.9376 13.7946 32.6459 15.8363 23.9376L17.878 15.2084C18.2946 13.4376 18.7946 11.8959 19.4196 10.6251C21.8571 5.58339 26.003 4.22922 32.9613 5.87506L36.4405 6.68756C45.1696 8.72922 47.8363 13.0417 45.7946 21.7501Z" stroke="#FC00FF" stroke-width="2" stroke-linecap="round" stroke-linejoin="round"/>
<path d="M32.0422 40.3961C30.7505 41.2711 29.1255 42.0002 27.1464 42.6461L23.8547 43.7294C15.5839 46.3961 11.2297 44.1669 8.54221 35.8961L5.87555 27.6669C3.20888 19.3961 5.41721 15.0211 13.688 12.3544L16.9797 11.2711C17.8339 11.0002 18.6464 10.7711 19.4172 10.6252C18.7922 11.8961 18.2922 13.4377 17.8755 15.2086L15.8339 23.9377C13.7922 32.6461 16.4797 36.9377 25.1672 39.0002L28.6672 39.8336C29.8755 40.1252 31.0005 40.3127 32.0422 40.3961Z" stroke="#FC00FF" stroke-width="2" stroke-linecap="round" stroke-linejoin="round"/>
<path d="M27 17.771L37.1042 20.3335" stroke="#FC00FF" stroke-width="2" stroke-linecap="round" stroke-linejoin="round"/>
<path d="M24.9609 25.833L31.0026 27.3747" stroke="#FC00FF" stroke-width="2" stroke-linecap="round" stroke-linejoin="round"/>
</svg>

<svg width="51" height="50" viewBox="0 0 51 50" fill="none" xmlns="http://www.w3.org/2000/svg"><path d="M45.795 21.75l-2.042 8.708c-1.75 7.521-5.208 10.563-11.708 9.938a21.898 21.898 0 01-3.375-.563L25.17 39c-8.688-2.062-11.375-6.354-9.334-15.062l2.042-8.73c.417-1.77.917-3.312 1.542-4.583 2.437-5.042 6.583-6.396 13.541-4.75l3.48.813c8.729 2.041 11.395 6.354 9.354 15.062z" stroke="#FC00FF" stroke-width="2" stroke-linecap="round" stroke-linejoin="round"/><path d="M32.042 40.396c-1.292.875-2.917 1.604-4.896 2.25l-3.291 1.083c-8.271 2.667-12.625.438-15.313-7.833l-2.666-8.23c-2.667-8.27-.459-12.645 7.812-15.312l3.292-1.083c.854-.27 1.666-.5 2.437-.646-.625 1.271-1.125 2.813-1.542 4.584l-2.041 8.729c-2.042 8.708.646 13 9.333 15.062l3.5.834c1.208.291 2.333.479 3.375.562zM27 17.771l10.104 2.563M24.96 25.833l6.043 1.542" stroke="#FC00FF" stroke-width="2" stroke-linecap="round" stroke-linejoin="round"/></svg>
